X: 1
T:Chanter's Tune  "chanter.bmw"
M:C
L:1/8
Q:80
C:T. O'Carollan
S:March
K:HP
|: {Gdc}dB|
{e}A2{GAG}A2{gef}e2{g}dB|
{g}A2{GAG}A2g2fg|  !
{ag}a2{ef}e2{g}e2dB|
g2fagedB|
{e}A2{GAG}A2{gef}e2{g}dB|  !
{g}A2{GAG}A2g2fg|
{ag}a2{ef}e2{g}ecdB|
{g}A4{GdGe}A2:| |:  !
cd|
e2{g}efg2fg|
edefg2fg|
{ag}a2{ef}e2{g}e2dB|  !
g2fagedB|
{e}A2{GAG}A2{gef}e2{g}dB|
{g}A2{GAG}A2g2fg|  !
{ag}a2{ef}e2{g}ecdB|
{g}A4{GdGe}A2:|
